packages/icons/raw/imported/SportSpecialSports.svg

<svg width="32" height="32" viewBox="0 0 32 32" fill="none" xmlns="http://www.w3.org/2000/svg">
<path d="M8.6544 20.2211C8.84919 20.0254 8.84844 19.7088 8.65271 19.514C8.45698 19.3192 8.1404 19.32 7.9456 19.5157L8.6544 20.2211ZM5.7456 21.7262C5.55081 21.922 5.55156 22.2385 5.74729 22.4333C5.94302 22.6281 6.2596 22.6274 6.4544 22.4317L5.7456 21.7262ZM10.4498 22.2538C10.6446 22.0581 10.6439 21.7415 10.4481 21.5467C10.2524 21.3519 9.93583 21.3527 9.74103 21.5484L10.4498 22.2538ZM5.34103 25.9694C5.14624 26.1652 5.14699 26.4818 5.34272 26.6765C5.53845 26.8713 5.85503 26.8706 6.04982 26.6749L5.34103 25.9694ZM12.3337 24.0578C12.5285 23.8621 12.5277 23.5455 12.332 23.3507C12.1363 23.1559 11.8197 23.1567 11.6249 23.3524L12.3337 24.0578ZM10.5249 24.4577C10.3301 24.6534 10.3308 24.97 10.5266 25.1648C10.7223 25.3596 11.0389 25.3588 11.2337 25.1631L10.5249 24.4577ZM19.3423 10.5239V10.0239V10.5239ZM26.8288 5.65731L27.3116 5.52742C27.2638 5.34956 27.122 5.2124 26.9427 5.17045L26.8288 5.65731ZM9.4 18.4717L8.96512 18.225C8.85138 18.4255 8.88941 18.6777 9.0572 18.8357L9.4 18.4717ZM13.2303 22.0789L12.8875 22.4429C13.0406 22.5871 13.2675 22.6201 13.4553 22.5255L13.2303 22.0789ZM11.6591 12.6281C11.9333 12.5955 12.1291 12.3467 12.0965 12.0725C12.0639 11.7983 11.8151 11.6025 11.5409 11.6351L11.6591 12.6281ZM5 16.5526L4.58846 16.2687C4.4611 16.4532 4.47221 16.7 4.61565 16.8724C4.75908 17.0448 4.99975 17.1006 5.2044 17.0089L5 16.5526ZM8.69843 16.8664C8.97012 16.9157 9.23038 16.7355 9.27971 16.4638C9.32905 16.1921 9.14879 15.9318 8.87709 15.8825L8.69843 16.8664ZM20.8315 19.94C20.871 19.6667 20.6815 19.4131 20.4082 19.3736C20.1349 19.334 19.8813 19.5236 19.8418 19.7969L20.8315 19.94ZM14.8366 26.5L14.3986 26.259C14.2911 26.4543 14.3259 26.6972 14.484 26.8544C14.642 27.0117 14.8851 27.0453 15.0799 26.9368L14.8366 26.5ZM15.5464 22.5851C15.4862 22.3156 15.2189 22.1459 14.9494 22.2062C14.6799 22.2664 14.5103 22.5337 14.5705 22.8032L15.5464 22.5851ZM7.9456 19.5157L5.7456 21.7262L6.4544 22.4317L8.6544 20.2211L7.9456 19.5157ZM9.74103 21.5484L5.34103 25.9694L6.04982 26.6749L10.4498 22.2538L9.74103 21.5484ZM11.6249 23.3524L10.5249 24.4577L11.2337 25.1631L12.3337 24.0578L11.6249 23.3524ZM19.3423 11.0239C19.678 11.0239 20.0063 11.1239 20.2858 11.3116L20.8432 10.4813C20.3992 10.1832 19.8768 10.0239 19.3423 10.0239V11.0239ZM20.2858 11.3116C20.5654 11.4993 20.7836 11.7663 20.9125 12.0791L21.8371 11.698C21.633 11.2029 21.2873 10.7795 20.8432 10.4813L20.2858 11.3116ZM20.9125 12.0791C21.0415 12.3919 21.0753 12.7363 21.0095 13.0686L21.9905 13.2628C22.0945 12.7375 22.0411 12.1929 21.8371 11.698L20.9125 12.0791ZM21.0095 13.0686C20.9437 13.4009 20.7814 13.7058 20.5435 13.9448L21.2523 14.6502C21.6297 14.271 21.8865 13.7881 21.9905 13.2628L21.0095 13.0686ZM20.5435 13.9448C20.3056 14.1839 20.0028 14.3464 19.6735 14.4122L19.8695 15.3928C20.3937 15.288 20.8749 15.0295 21.2523 14.6502L20.5435 13.9448ZM19.6735 14.4122C19.3442 14.478 19.0028 14.4443 18.6925 14.3151L18.3082 15.2383C18.8019 15.4438 19.3453 15.4976 19.8695 15.3928L19.6735 14.4122ZM18.6925 14.3151C18.3821 14.1859 18.1165 13.967 17.9294 13.6857L17.0967 14.2394C17.3931 14.6851 17.8146 15.0329 18.3082 15.2383L18.6925 14.3151ZM17.9294 13.6857C17.7423 13.4043 17.6423 13.0733 17.6423 12.7345H16.6423C16.6423 13.27 16.8003 13.7937 17.0967 14.2394L17.9294 13.6857ZM17.6423 12.7345C17.6423 12.28 17.822 11.8447 18.141 11.5241L17.4322 10.8187C16.9262 11.3272 16.6423 12.0163 16.6423 12.7345H17.6423ZM18.141 11.5241C18.46 11.2036 18.8922 11.0239 19.3423 11.0239V10.0239C18.6254 10.0239 17.9384 10.3101 17.4322 10.8187L18.141 11.5241ZM21.1456 6.95797L25.5456 11.379L26.2544 10.6736L21.8544 6.25255L21.1456 6.95797ZM26.9427 5.17045C26.218 5.00092 23.775 4.62046 20.4721 6.12712C17.1716 7.63271 13.0649 10.9989 8.96512 18.225L9.83488 18.7185C13.8595 11.6249 17.8253 8.43368 20.8872 7.03692C23.9467 5.64123 26.156 6.01341 26.7149 6.14416L26.9427 5.17045ZM9.0572 18.8357L12.8875 22.4429L13.5731 21.715L9.7428 18.1077L9.0572 18.8357ZM13.4553 22.5255C21.1431 18.6519 24.7179 14.7743 26.3134 11.652C27.9131 8.52132 27.4942 6.20593 27.3116 5.52742L26.346 5.78719C26.4782 6.27859 26.8874 8.33086 25.4229 11.197C23.9541 14.0714 20.5724 17.8197 13.0053 21.6324L13.4553 22.5255ZM11.5409 11.6351C9.76224 11.8467 7.01549 12.7512 4.58846 16.2687L5.41154 16.8366C7.65633 13.5833 10.1301 12.81 11.6591 12.6281L11.5409 11.6351ZM5 16.5526C5.2044 17.0089 5.2042 17.009 5.20401 17.0091C5.20395 17.0091 5.20376 17.0092 5.20365 17.0093C5.20341 17.0094 5.2032 17.0095 5.20301 17.0096C5.20263 17.0097 5.20233 17.0099 5.20211 17.01C5.20167 17.0102 5.20156 17.0102 5.20178 17.0101C5.20221 17.0099 5.20395 17.0092 5.20697 17.0079C5.21303 17.0054 5.22425 17.0009 5.24056 16.9947C5.27318 16.9824 5.32613 16.9636 5.39875 16.9414C5.54399 16.897 5.7679 16.8392 6.06537 16.7935C6.65953 16.702 7.55046 16.6579 8.69843 16.8664L8.87709 15.8825C7.61294 15.6529 6.60998 15.6979 5.9133 15.8051C5.56535 15.8586 5.29459 15.9275 5.10651 15.985C5.01248 16.0138 4.93911 16.0396 4.88708 16.0593C4.86106 16.0691 4.84038 16.0774 4.8251 16.0837C4.81746 16.0869 4.81118 16.0895 4.80626 16.0916C4.8038 16.0927 4.80168 16.0936 4.7999 16.0944C4.79901 16.0948 4.79821 16.0952 4.79749 16.0955C4.79713 16.0956 4.7968 16.0958 4.79648 16.0959C4.79632 16.096 4.7961 16.0961 4.79602 16.0961C4.79581 16.0962 4.7956 16.0963 5 16.5526ZM19.8418 19.7969C19.6251 21.2953 18.6804 23.7874 14.5934 26.0632L15.0799 26.9368C19.4231 24.5184 20.5675 21.765 20.8315 19.94L19.8418 19.7969ZM14.8366 26.5C15.2747 26.741 15.2748 26.7408 15.275 26.7406C15.275 26.7405 15.2751 26.7402 15.2752 26.7401C15.2754 26.7397 15.2756 26.7394 15.2758 26.739C15.2762 26.7382 15.2767 26.7374 15.2772 26.7364C15.2782 26.7346 15.2794 26.7323 15.2808 26.7298C15.2835 26.7246 15.2869 26.7181 15.2909 26.7102C15.2989 26.6944 15.3094 26.6731 15.3218 26.6463C15.3467 26.5929 15.3792 26.5177 15.4154 26.4215C15.4877 26.2292 15.5743 25.9526 15.6416 25.5976C15.7765 24.8862 15.8326 23.8658 15.5464 22.5851L14.5705 22.8032C14.8251 23.9423 14.7703 24.8248 14.6591 25.4114C14.6033 25.7054 14.5331 25.9266 14.4793 26.0697C14.4524 26.1413 14.4296 26.1933 14.4149 26.2251C14.4075 26.241 14.4021 26.2518 14.3992 26.2575C14.3978 26.2603 14.397 26.2619 14.3968 26.2621C14.3968 26.2623 14.3969 26.2621 14.3972 26.2615C14.3973 26.2613 14.3975 26.2609 14.3977 26.2605C14.3978 26.2603 14.398 26.2601 14.3981 26.2598C14.3982 26.2597 14.3983 26.2595 14.3983 26.2594C14.3984 26.2592 14.3986 26.259 14.8366 26.5Z" fill="black"/>
</svg>

<svg width="32" height="32" fill="none" xmlns="http://www.w3.org/2000/svg"><path d="M8.654 20.221a.5.5 0 1 0-.708-.705l.708.705Zm-2.908 1.505a.5.5 0 0 0 .708.706l-.708-.706Zm4.704.528a.5.5 0 1 0-.709-.706l.709.706ZM5.34 25.969a.5.5 0 0 0 .709.706l-.709-.706Zm6.993-1.911a.5.5 0 0 0-.71-.706l.71.706Zm-1.81.4a.5.5 0 1 0 .71.705l-.71-.705Zm8.818-13.934v-.5.5Zm7.487-4.867.483-.13a.5.5 0 0 0-.37-.357l-.113.487ZM9.4 18.472l-.435-.247a.5.5 0 0 0 .092.61l.343-.363Zm3.83 3.607-.343.364a.5.5 0 0 0 .568.082l-.225-.446Zm-1.57-9.45a.5.5 0 0 0-.12-.994l.12.993ZM5 16.552l-.412-.284a.5.5 0 0 0 .616.74L5 16.553Zm3.698.313a.5.5 0 0 0 .18-.983l-.18.983Zm12.133 3.074a.5.5 0 0 0-.99-.143l.99.143Zm-5.994 6.56-.438-.241a.5.5 0 0 0 .68.678l-.242-.437Zm.71-3.915a.5.5 0 1 0-.977.218l.976-.218Zm-7.601-3.07-2.2 2.211.708.706 2.2-2.21-.708-.706Zm1.795 2.033-4.4 4.421.709.706 4.4-4.421-.709-.706Zm1.884 1.804-1.1 1.106.709.705 1.1-1.105-.71-.706Zm7.717-12.328c.336 0 .664.1.944.288l.557-.83a2.693 2.693 0 0 0-1.5-.458v1Zm.944.288c.28.187.498.454.627.767l.924-.381a2.708 2.708 0 0 0-.994-1.217l-.557.83Zm.627.767c.128.313.162.657.096.99l.982.194a2.72 2.72 0 0 0-.154-1.565l-.924.381Zm.096.99a1.714 1.714 0 0 1-.465.876l.708.705c.378-.379.635-.862.739-1.387l-.982-.194Zm-.465.876c-.238.239-.541.401-.87.467l.195.98a2.696 2.696 0 0 0 1.383-.742l-.708-.705Zm-.87.467a1.69 1.69 0 0 1-.982-.097l-.384.923a2.69 2.69 0 0 0 1.561.155l-.195-.98Zm-.982-.097a1.703 1.703 0 0 1-.763-.63l-.832.554c.296.446.718.794 1.211 1l.384-.924Zm-.763-.63a1.718 1.718 0 0 1-.287-.95h-1c0 .535.158 1.059.455 1.504l.832-.553Zm-.287-.95c0-.455.18-.89.499-1.21l-.709-.706a2.716 2.716 0 0 0-.79 1.915h1Zm.499-1.21c.319-.321.751-.501 1.201-.501v-1c-.717 0-1.404.286-1.91.795l.709.705Zm3.005-4.567 4.4 4.421.708-.705-4.4-4.421-.708.705Zm5.797-1.788c-.725-.17-3.168-.55-6.47.957C17.171 7.633 13.064 11 8.964 18.225l.87.493c4.024-7.093 7.99-10.284 11.052-11.681 3.06-1.396 5.269-1.024 5.828-.893l.228-.974ZM9.057 18.836l3.83 3.607.686-.728-3.83-3.607-.686.728Zm4.398 3.69c7.688-3.874 11.263-7.752 12.858-10.874 1.6-3.13 1.181-5.446.999-6.125l-.966.26c.132.492.541 2.544-.923 5.41-1.469 2.874-4.85 6.623-12.418 10.435l.45.893Zm-1.914-10.89c-1.779.21-4.526 1.115-6.953 4.633l.824.568c2.244-3.254 4.718-4.027 6.247-4.209l-.118-.993ZM5 16.552l.204.456h-.001v.001h-.001l.005-.002a2.647 2.647 0 0 1 .192-.066c.145-.045.369-.103.666-.148.595-.092 1.485-.136 2.633.072l.18-.983c-1.265-.23-2.268-.185-2.965-.078a5.776 5.776 0 0 0-.806.18 3.618 3.618 0 0 0-.282.099l-.019.008-.006.002-.003.002h-.001l.204.457Zm14.842 3.244c-.217 1.498-1.162 3.99-5.249 6.266l.487.874c4.343-2.419 5.487-5.172 5.751-6.997l-.99-.143ZM14.837 26.5l.438.24v-.001l.002-.003.004-.006.01-.02.03-.064c.026-.053.058-.128.094-.224.073-.193.16-.47.227-.824.135-.712.19-1.732-.096-3.013l-.976.218c.255 1.14.2 2.022.09 2.608a4.005 4.005 0 0 1-.18.659 2.298 2.298 0 0 1-.08.188l-.003.004v-.002h.001l.439.24Z" fill="#000"/></svg>
